X:360
T: Cronin's Hornpipe
M: 4/4
L: 1/8
R: Hornpipe
K: G
BA|GABd dBde|gage dega|bage dBGA|BAAG AcBA|
GABd dBde|gage dega|bage dBAB|G2GF G2 :|
(3efg|afd^c dega|beed efga|(3bag (3agf gedB|BAAG AcBA|
GABd dBde|gage dega|bage dBAB|G2GF G2 :|
